src/public/images/common/plus.svg

<svg width="20px" height="20px" viewBox="0 0 20 20" xmlns="http://www.w3.org/2000/svg"><g id="Symbols" stroke="none" stroke-width="1" fill="none" fill-rule="evenodd"><g id="ic-create-account"><g id="Group-2"><circle id="Oval-2" stroke="#FFFFFF" cx="10" cy="10" r="9.5"></circle><path d="M10.5,9.5 L10.5,5.5 C10.5,5.22385763 10.2761424,5 10,5 C9.72385763,5 9.5,5.22385763 9.5,5.5 L9.5,5.5 L9.5,9.5 L5.5,9.5 C5.22385763,9.5 5,9.72385763 5,10 C5,10.2761424 5.22385763,10.5 5.5,10.5 L9.5,10.5 L9.5,14.5 C9.5,14.7761424 9.72385763,15 10,15 C10.2761424,15 10.5,14.7761424 10.5,14.5 L10.5,10.5 L14.5,10.5 C14.7761424,10.5 15,10.2761424 15,10 C15,9.72385763 14.7761424,9.5 14.5,9.5 L10.5,9.5 Z" id="Combined-Shape" fill="#FFFFFF"></path></g></g></g></svg>

<svg width="20" height="20" xmlns="http://www.w3.org/2000/svg"><g fill="none" fill-rule="evenodd"><circle stroke="#FFF" cx="10" cy="10" r="9.5"/><path d="M10.5 9.5v-4a.5.5 0 1 0-1 0v4h-4a.5.5 0 0 0 0 1h4v4a.5.5 0 1 0 1 0v-4h4a.5.5 0 1 0 0-1h-4z" fill="#FFF"/></g></svg>
